X: 104105
T: DAINTY DAVIE
Q:"Strathspey."
R: Strathspey.
%R:strathspey
Z: 2017 by John Chambers <jc:trillian.mit.edu>
B: Kerr's Merrie Melodies v.1 p.4 s.1 #5
M: C
L: 1/16
K: G
|: ue2 |\
d3cB3A (GE3) G4 | vG2ud BcdB Gd3 Bg3 |\
d3cB3A (GE3) G4 | vg3ua bagf e3f g2 :|\
ud2 |\
g3b gb3 gb3 b2(ag) | fa3 da3 fa3 a2(gf) |
gb3 gb3 gb3 b2(ag) | f3d bagf ef3 g3d |\
gb3 gb3 gb3 b2(ag) | fa3 da3 fa3 a2(gf) |\
vg3vaub3ug a3g(f2d2) | e3f bagf e3f g2 |]

%%sep 1 1 500
%%sep 1 1 500

